!!!COM: Mozart, Wolfgang Amadeus
!!!CDT: 1756///-1791///
!!!OTP: Viennese Sonatina No. 1 in C-major
!!!OTL: Sonatina in C-major
!!!OMV: No. 4
!!!GNM: No. 1
!!!OMD: Allegro
!!!AFR: Rondo
!!!ENC: Craig Stuart Sapp
!!!AIN: piano
!!!EEV: 19 March 2001
!!!YEC: Copyright 2001 by Craig Stuart Sapp
!!!YEN: United States of America
**kern	**kern
*lh	*rh
*clefF4	*clefG2
*k[]	*k[]
*C:	*C:
*M2/4	*M2/4
*MM128	*MM128
*>[A,A,B,B,C,C,D,D,E,F,F,G,G,H]	*>[A,A,B,B,C,C,D,D,E,F,F,G,G,H]
*>A	*>A
8r	16cc 16ee
.	16dd 16ff
=1	=1
8C'	8ee' 8gg'
8r	8cc' 8ee'
8c'	8aa' 8ccc'
8r	8ff' 8aa'
=2	=2
4C	4ee 4gg
8r	8r
8C'	8g' 8cc' 8ee'
=3	=3
8BB'	8g' 8dd' 8ff'
8BB'	8g' 8dd' 8ff'
8C'	8g' 8cc' 8ee'
8C'	8g' 8cc' 8ee'
=4	=4
4GG	4g 4b 4dd
4r	8r
.	16cc 16ee
.	16dd 16ff
=5	=5
8C'	8ee' 8gg'
8r	8cc' 8ee'
8c'	8aa' 8ccc'
8r	8ff' 8aa'
=6	=6
4C	4ee 4gg
8r	8r
8c'	8g' 8cc' 8ee'
=7	=7
8F'	8a' 8dd' 8ff'
8F'	8a' 8dd' 8ff'
8G'	8f' 8b' 8dd'
8G'	8f' 8b' 8dd'
=8	=8
4C	4e 4cc
8r	8r
=:!!:	=:!!:
*>B	*>B
8r	8gg
=9	=9
8G	4.gg
8g	.
8f	.
8g	8bb
=10	=10
*^	*
4c	8e	8bb
.	8g	8ccc
4c	8e	8gg'
.	8g	8gg'
*v	*v	*
=11	=11
8G	4.gg
8g	.
8f	.
8g	8bb
=12	=12
*^	*
4c	8e	8bb
.	8g	8ccc
8c	8e	8gg'
*v	*v	*
8e'	16ccc
.	16bb
=13	=13
8f'	8aa'
8f'	8ff' 8aa'
8c'	8ee' 8gg'
8c'	8ee' 8gg'
=14	=14
8G'	8dd' 8ff'
8G'	8dd' 8ff'
8A'	8cc' 8ee'
8A'	8cc' 8ee'
=15	=15
8F'	8dd' 8ff'
8F'	8dd' 8ff'
8G'	8b' 8dd'
8G'	8b' 8dd'
=16	=16
4C	4cc
8r	8r
=:!!:	=:!!:
*>C	*>C
8r	8g
=17	=17
2E- 2c	4cc
.	4ee-
=18	=18
2F 2c	4.dd
.	[8aa-
=19	=19
2G 2B	4aa-]
.	8gg
.	8ff
=20	=20
4C 4c	8ff
.	8ee-
4r	8dd'
.	8cc'
=21	=21
8r	2ee- [2ccc
8c'	.
8A'	.
8F#'	.
=22	=22
8D'	4ff# 4ccc]
8d'	.
8E-'	4gg 4bb-
8e-'	.
=23	=23
*	*^
8C'	4gg	4.aa
8c'	.	.
8D'	4ff#	.
8d'	.	16bb-
.	.	16aa
*	*v	*v
=24	=24
4G	4gg
8r	8r
=:!!:	=:!!:
*>D	*>D
8r	8g
=25	=25
8r	[2gg
8BBn	.
8AA	.
8BB	.
=26	=26
8C'	2gg] [2aa-
8C	.
8BB	.
8C	.
=27	=27
8D'	[2ff 2aa-]
8D	.
8C	.
8D	.
=28	=28
*	*^
8E-'	4ff]	2gg
8E-	.	.
8D	[4ee-	.
8E-	.	.
=29	=29	=29
8F'	4ee-]	2ff
8F	.	.
8E-	8dd	.
8F	8cc	.
=30	=30	=30
4G	4b	4ff
4A-	4cc	4ee-
=31	=31	=31
4F	4cc	4.dd
4G	4b	.
.	.	16ee-
.	.	16dd
*	*v	*v
=32	=32
4C	4cc
8r	8r
=:|!	=:|!
*>E	*>E
8r	16cc 16een
.	16dd 16ff
=33	=33
8C'	8ee' 8gg'
8r	8cc' 8ee'
8c'	8aa' 8ccc'
8r	8ff' 8aa'
=34	=34
4C	4ee 4gg
8r	8r
8C'	8g' 8cc' 8ee'
=35	=35
8BB'	8g' 8dd' 8ff'
8BB'	8g' 8dd' 8ff'
8C'	8g' 8cc' 8ee'
8C'	8g' 8cc' 8ee'
=36	=36
4GG	4g 4b 4dd
4r	8r
.	16cc 16ee
.	16dd 16ff
=37	=37
8C'	8ee' 8gg'
8r	8cc' 8ee'
8c'	8aa' 8ccc'
8r	8ff' 8aa'
=38	=38
4C	4ee 4gg
8r	8r
8c'	8g' 8cc' 8ee'
=39	=39
8F'	8a' 8dd' 8ff'
8F'	8a' 8dd' 8ff'
8G'	8f' 8b' 8dd'
8G'	8f' 8b' 8dd'
=40	=40
4C	4e 4cc
4r	8r
.	8gg
=41	=41
8G	4.gg
8g	.
8f	.
8g	8bb
=42	=42
*^	*
4c	8e	8bb
.	8g	8ccc
4c	8e	8gg'
.	8g	8gg'
*v	*v	*
=43	=43
8G	4.gg
8g	.
8f	.
8g	8bb
=44	=44
*^	*
4c	8e	8bb
.	8g	8ccc
8c	8e	8gg'
*v	*v	*
8e'	16ccc
.	16bb
=45	=45
8f'	8aa'
8f'	8ff' 8aa'
8c'	8ee' 8gg'
8c'	8ee' 8gg'
=46	=46
8G'	8dd' 8ff'
8G'	8dd' 8ff'
8A'	8cc' 8ee'
8A'	8cc' 8ee'
=47	=47
8F'	8dd' 8ff'
8F'	8dd' 8ff'
8G'	8b' 8dd'
8G'	8b' 8dd'
=48	=48
4C	4cc
8r	8r
=!|:	=!|:
*>F	*>F
*k[b-]	*k[b-]
*F:	*F:
8r	8cc
=49	=49
8a	4.ff
8cc	.
8a	.
8cc	8aa
=50	=50
8b-	8aa
8cc	8gg
8g	8ff
8cc	8ee
=51	=51
8a	8ff
8cc	8gg
8f	8aa
8cc	8bb-
=52	=52
8e	4.ccc
8cc	.
8e	.
8cc	8bb-
=53	=53
8f	8bb-
8cc	8aa
8d	8gg
8bn	8ff
=54	=54
4c	8ee
.	8ff
4r	8ff#
.	8gg
=55	=55
8G	4cc
8e	.
8f	8ee
8g	8dd
=56	=56
4c 4e	4cc
8r	8r
=:!!:	=:!!:
*>G	*>G
8C	8cc
=57	=57
8B-'	8bb-'
8B-	8bb-
8G	8gg
8G	8gg
=58	=58
8E'	8ee'
8E'	8ee'
8r	8r
8C	8cc
=59	=59
8c'	8ccc'
8c	8ccc
8A	8aa
8A	8aa
=60	=60
8F'	8ff'
8F'	8ff'
4r	8r
.	8cc
=61	=61
4BB- 4B-	8cc#
.	8dd
4r	8ee
.	8ff
=62	=62
2r	8ff#
.	8gg
.	8aa
.	8bb-
=63	=63
8C	4ffn
8A	.
8B-	8aa
8c	8gg
=64	=64
4F 4A	4ff
8r	8r
=:|!	=:|!
*>H	*>H
*k[]	*k[]
*C:	*C:
8r	16cc 16ee
.	16dd 16ff
=65	=65
8C'	8ee' 8gg'
8r	8cc' 8ee'
8c'	8aa' 8ccc'
8r	8ff' 8aa'
=66	=66
4C	4ee 4gg
8r	8r
8C'	8g' 8cc' 8ee'
=67	=67
8BB'	8g' 8dd' 8ff'
8BB'	8g' 8dd' 8ff'
8C'	8g' 8cc' 8ee'
8C'	8g' 8cc' 8ee'
=68	=68
4GG	4g 4b 4dd
4r	8r
.	16cc 16ee
.	16dd 16ff
=69	=69
8C'	8ee' 8gg'
8r	8cc' 8ee'
8c'	8aa' 8ccc'
8r	8ff' 8aa'
=70	=70
4C	4ee 4gg
8r	8r
8c'	8g' 8cc' 8ee'
=71	=71
8F'	8a' 8dd' 8ff'
8F'	8a' 8dd' 8ff'
8G'	8f' 8b' 8dd'
8G'	8f' 8b' 8dd'
=72	=72
4C	4e 4cc
4r	8r
.	8gg
=73	=73
8G	4.gg
8g	.
8f	.
8g	8bb
=74	=74
*^	*
4c	8e	8bb
.	8g	8ccc
4c	8e	8gg'
.	8g	8gg'
*v	*v	*
=75	=75
8G	4.gg
8g	.
8f	.
8g	8bb
=76	=76
*^	*
4c	8e	8bb
.	8g	8ccc
8c	8e	8gg'
*v	*v	*
8e'	16ccc
.	16bb
=77	=77
8f'	8aa'
8f'	8ff' 8aa'
8c'	8ee' 8gg'
8c'	8ee' 8gg'
=78	=78
8G'	8dd' 8ff'
8G'	8dd' 8ff'
8A'	8cc' 8ee'
8A'	8cc' 8ee'
=79	=79
8F'	8dd' 8ff'
8F'	8dd' 8ff'
8G'	8b' 8dd'
8G'	8b' 8dd'
=80	=80
4C	4cc
8r	8r
8C	8cc
=81	=81
8EE'	8e'
8EE	8e
8C	8cc
8C	8cc
=82	=82
8FF'	8f'
8FF'	8f'
8r	8r
8F'	8ff' 8aa'
=83	=83
8F	8ff 8aa
8G	8ee 8gg
8G	8ee 8gg
8G#	8dd 8ff
=84	=84
4G#	4dd 4ff
8A	8cc 8ee
8C	8cc
=85	=85
8EE'	8e'
8EE	8e
8C	8cc
8C	8cc
=86	=86
8FF'	8f'
8FF'	8f'
8r	8r
8F' 8f'	8aa'
=87	=87
8G' 8e'	8aa
8r	8gg
8G' 8f'	8gg
8r	8b
=88	=88
4c 4e	4cc
4r	8r
.	8cc
=89	=89
8r	[2gg
8b	.
8a	.
8b	.
=90	=90
8cc'	2gg] [2aa
8cc	.
8b	.
8cc	.
=91	=91
8dd'	2ff# 2aa]
8cc'	.
8b'	.
8a'	.
=92	=92
8g'	2ffn 2bb
8f'	.
8e'	.
8d'	.
=93	=93
8c'	2ee [2ccc
8B'	.
8A'	.
8G'	.
=94	=94
8F#'	[2dd 2ccc]
8D'	.
8E'	.
8F#'	.
=95	=95
8G'	2dd] [2bb-
8B-'	.
8G'	.
8F'	.
=96	=96
8E'	2cc 2bb-]
8C'	.
8D'	.
8E'	.
=97	=97
*	*^
8F'	4cc	2aa
8A'	.	.
8d'	[4ff	.
8c'	.	.
=98	=98	=98
8B-'	4ff]	2gg
8G'	.	.
8c'	4ee	.
8E'	.	.
*	*v	*v
=99	=99
8F'	4dd 4ff
8D'	.
8G'	4b 4dd
8GG'	.
=100	=100
4C	4cc
8r	8r
8GG	8g
=101	=101
8C'	8cc'
8C	8cc
8E	8ee
8E	8ee
=102	=102
8G'	8gg'
8G'	8gg'
8r	4r
8r	.
=103	=103
2G	2ff 2bb
=104	=104
4C	4ee 4ccc
8r	8r
8GG	8g
=105	=105
8C'	8cc'
8C	8cc
8E	8ee
8E	8ee
=106	=106
8G'	8gg'
8G'	8gg'
4r	4r
=107	=107
2GG	2f 2b
=108	=108
8CC	8e 8cc
8r	8r
4C	4g 4ee
=109	=109
4CC	4e 4cc
4r	4r
==	==
*-	*-
